docs/assets/images/bigcartel.svg

<svg width="50" height="50" viewBox="0 0 50 50" fill="none" xmlns="http://www.w3.org/2000/svg">
<g clip-path="url(#clip0_913_28238)">
<path d="M27.0003 46.0005C37.4939 46.0005 46.0006 37.4937 46.0006 27.0002C46.0006 16.5066 37.4939 7.99988 27.0003 7.99988C16.5067 7.99988 8 16.5066 8 27.0002C8 37.4937 16.5067 46.0005 27.0003 46.0005Z" fill="#48A0DC"/>
<path d="M27.6539 26.4824L33.4751 22.845C33.8984 22.5814 34.1294 22.1325 34.1288 21.6741V18.6863L27.0013 23.1395L19.8721 18.6863V28.0933C19.8721 30.6797 21.0341 32.7751 22.9418 33.965L27.0013 36.5021L31.0591 33.965C32.9674 32.7751 34.1288 30.6803 34.1288 28.0933V23.8895L27.0019 28.3426L27.0013 27.6539C27.0001 27.1955 27.2311 26.7466 27.6539 26.4824Z" fill="white"/>
</g>
<defs>
<clipPath id="clip0_913_28238">
<rect width="38.0006" height="38" fill="white" transform="translate(8 7.99988)"/>
</clipPath>
</defs>
</svg>

<svg xmlns="http://www.w3.org/2000/svg" fill="none" viewBox="0 0 50 50"><g clip-path="url(#a)"><path fill="#48A0DC" d="M27 46c10.494 0 19-8.506 19-19 0-10.493-8.506-19-19-19C16.507 8 8 16.507 8 27c0 10.494 8.507 19 19 19z"/><path fill="#fff" d="m27.654 26.482 5.821-3.637c.423-.264.654-.712.654-1.17v-2.989L27 23.14l-7.129-4.454v9.407c0 2.587 1.162 4.682 3.07 5.872l4.06 2.537 4.057-2.537c1.908-1.19 3.07-3.285 3.07-5.872V23.89l-7.127 4.453v-.69c-.002-.457.23-.906.652-1.17z"/></g><defs><clipPath id="a"><path fill="#fff" d="M0 0H38.001V38H0z" transform="translate(8 8)"/></clipPath></defs></svg>
